loleaflet/images/lc_deletelegend.svg

<svg height="24" viewBox="0 0 6.3499999 6.3500002" width="24" xmlns="http://www.w3.org/2000/svg"><g stroke-width=".264583"><g transform="translate(0 -290.64998)"><path d="m3 2c-.5539993 0-1 .4460007-1 1v18c0 .553999.4460007 1 1 1h9.017578c.04778-.165191.136456-.315664.257813-.4375l3.566406-3.566406-3.566406-3.556641c-.400084-.399472-.400084-1.047793 0-1.447265l.716797-.716797c.162732-.163854.376134-.267802.605468-.294922.310947-.0357.621119.07297.841797.294922l3.556641 3.566406 3.566406-3.566406c.121836-.121357.272309-.210028.4375-.257813v-9.017578c0-.5539993-.446001-1-1-1z" fill="#3a3a38" stroke-width=".999999" transform="matrix(.26458334 0 0 .26458334 0 290.64998)"/><path d="m3 3v18h9.837891l3.003906-3.003906-3.566406-3.556641c-.400084-.399472-.400084-1.047793 0-1.447265l.716797-.716797c.162732-.163854.376134-.267802.605468-.294922.310947-.0357.621119.07297.841797.294922l3.556641 3.566406 3.003906-3.003906v-9.837891z" fill="#fafafa" stroke-width=".999999" transform="matrix(.26458334 0 0 .26458334 0 290.64998)"/><g fill="#797774"><rect height=".264583" rx=".132292" ry=".125565" width="2.116667" x="2.645833" y="292.23746"/><rect height=".264583" rx=".132292" ry=".125565" width="2.116667" x="2.645833" y="293.560377"/><path d="m10.5 16c-.277001 0-.5.211694-.5.474609v.050782c0 .262915.222999.474609.5.474609h4.34375l-1.003906-1z" stroke-width=".999999" transform="matrix(.26458334 0 0 .26458334 0 290.64998)"/></g><path d="m2.1166667 292.36976a.396875.396875 0 0 1 -.396875.39687.396875.396875 0 0 1 -.396875-.39687.396875.396875 0 0 1 .396875-.39688.396875.396875 0 0 1 .396875.39688z" fill="#1e8bcd"/><path d="m2.1166667 293.69267a.396875.396875 0 0 1 -.396875.39688.396875.396875 0 0 1 -.396875-.39688.396875.396875 0 0 1 .396875-.39687.396875.396875 0 0 1 .396875.39687z" fill="#fb983b"/><path d="m2.1166667 295.01559a.396875.396875 0 0 1 -.396875.39687.396875.396875 0 0 1 -.396875-.39687.396875.396875 0 0 1 .396875-.39688.396875.396875 0 0 1 .396875.39688z" fill="#797774"/></g><path d="m5.8964203 3.4395749-1.1339287 1.1339285-1.1339288-1.1339285-.1889879.1889879 1.1339285 1.1339288-1.1339285 1.1339287.1889879.188988 1.1339288-1.1339286 1.1339287 1.1339286.188988-.188988-1.1339286-1.1339287 1.1339286-1.1339288z" fill="#ed3d3b"/></g></svg>

<?xml version="1.0" encoding="UTF-8" standalone="no"?>
<svg
   xmlns:dc="http://purl.org/dc/elements/1.1/"
   xmlns:cc="http://creativecommons.org/ns#"
   xmlns:rdf="http://www.w3.org/1999/02/22-rdf-syntax-ns#"
   xmlns:svg="http://www.w3.org/2000/svg"
   xmlns="http://www.w3.org/2000/svg"
   xmlns:sodipodi="http://sodipodi.sourceforge.net/DTD/sodipodi-0.dtd"
   xmlns:inkscape="http://www.inkscape.org/namespaces/inkscape"
   height="24"
   viewBox="0 0 6.3499999 6.3500002"
   width="24"
   version="1.1"
   id="svg24"
   sodipodi:docname="lc_deletelegend.svg"
   inkscape:version="0.92.5 (2060ec1f9f, 2020-04-08)">
  <metadata
     id="metadata30">
    <rdf:RDF>
      <cc:Work
         rdf:about="">
        <dc:format>image/svg+xml</dc:format>
        <dc:type
           rdf:resource="http://purl.org/dc/dcmitype/StillImage" />
        <dc:title></dc:title>
      </cc:Work>
    </rdf:RDF>
  </metadata>
  <defs
     id="defs28" />
  <sodipodi:namedview
     pagecolor="#ffffff"
     bordercolor="#666666"
     borderopacity="1"
     objecttolerance="10"
     gridtolerance="10"
     guidetolerance="10"
     inkscape:pageopacity="0"
     inkscape:pageshadow="2"
     inkscape:window-width="1366"
     inkscape:window-height="700"
     id="namedview26"
     showgrid="true"
     inkscape:zoom="27.812867"
     inkscape:cx="17.613181"
     inkscape:cy="4.0599091"
     inkscape:window-x="0"
     inkscape:window-y="0"
     inkscape:window-maximized="1"
     inkscape:current-layer="svg24">
    <inkscape:grid
       type="xygrid"
       id="grid840" />
  </sodipodi:namedview>
  <g
     stroke-width=".264583"
     transform="translate(0 -290.64998)"
     id="g22">
    <path
       style="fill:#3a3a38;stroke-width:0.99999869"
       d="M 3,2 C 2.4460007,2 2,2.4460007 2,3 v 18 c 0,0.553999 0.4460007,1 1,1 h 9.017578 c 0.04778,-0.165191 0.136456,-0.315664 0.257813,-0.4375 l 3.566406,-3.566406 -3.566406,-3.556641 c -0.400084,-0.399472 -0.400084,-1.047793 0,-1.447265 l 0.716797,-0.716797 c 0.162732,-0.163854 0.376134,-0.267802 0.605468,-0.294922 0.310947,-0.0357 0.621119,0.07297 0.841797,0.294922 l 3.556641,3.566406 3.566406,-3.566406 C 21.684336,12.154034 21.834809,12.065363 22,12.017578 V 3 C 22,2.4460007 21.553999,2 21,2 Z"
       transform="matrix(0.26458334,0,0,0.26458334,0,290.64998)"
       id="rect2"
       inkscape:connector-curvature="0"
       sodipodi:nodetypes="sssscccccccccccsss" />
    <path
       style="fill:#fafafa;stroke-width:0.99999869"
       d="m 3,3 v 18 h 9.837891 l 3.003906,-3.003906 -3.566406,-3.556641 c -0.400084,-0.399472 -0.400084,-1.047793 0,-1.447265 l 0.716797,-0.716797 c 0.162732,-0.163854 0.376134,-0.267802 0.605468,-0.294922 0.310947,-0.0357 0.621119,0.07297 0.841797,0.294922 L 17.996094,15.841797 21,12.837891 V 3 Z"
       transform="matrix(0.26458334,0,0,0.26458334,0,290.64998)"
       id="path4"
       inkscape:connector-curvature="0"
       sodipodi:nodetypes="ccccccccccccc" />
    <g
       fill="#797774"
       id="g12">
      <rect
         height=".264583"
         rx=".132292"
         ry=".125565"
         width="2.116667"
         x="2.645833"
         y="292.23746"
         id="rect6" />
      <rect
         height=".264583"
         rx=".132292"
         ry=".125565"
         width="2.116667"
         x="2.645833"
         y="293.560377"
         id="rect8" />
      <path
         style="stroke-width:0.99999869"
         d="M 10.5 16 C 10.222999 16 10 16.211694 10 16.474609 L 10 16.525391 C 10 16.788306 10.222999 17 10.5 17 L 14.84375 17 L 13.839844 16 L 10.5 16 z "
         transform="matrix(0.26458334,0,0,0.26458334,0,290.64998)"
         id="rect10" />
    </g>
    <g
       id="g20">
      <path
         d="m2.1166667 292.36976a.396875.396875 0 0 1 -.396875.39687.396875.396875 0 0 1 -.396875-.39687.396875.396875 0 0 1 .396875-.39688.396875.396875 0 0 1 .396875.39688z"
         fill="#1e8bcd"
         id="path14" />
      <path
         d="m2.1166667 293.69267a.396875.396875 0 0 1 -.396875.39688.396875.396875 0 0 1 -.396875-.39688.396875.396875 0 0 1 .396875-.39687.396875.396875 0 0 1 .396875.39687z"
         fill="#fb983b"
         id="path16" />
      <path
         d="m2.1166667 295.01559a.396875.396875 0 0 1 -.396875.39687.396875.396875 0 0 1 -.396875-.39687.396875.396875 0 0 1 .396875-.39688.396875.396875 0 0 1 .396875.39688z"
         fill="#797774"
         id="path18" />
    </g>
  </g>
  <path
     inkscape:connector-curvature="0"
     d="M 5.8964203,3.4395749 4.7624916,4.5735034 3.6285628,3.4395749 3.4395749,3.6285628 4.5735034,4.7624916 3.4395749,5.8964203 3.6285628,6.0854083 4.7624916,4.9514797 5.8964203,6.0854083 6.0854083,5.8964203 4.9514797,4.7624916 6.0854083,3.6285628 Z"
     id="path14-3"
     style="stroke-width:0.26458335;fill:#ed3d3b" />
</svg>
